lib/preview/nrk-logo-preview-nrk.svg

<svg width="35" height="14" viewBox="0 0 35 14" fill="none" xmlns="http://www.w3.org/2000/svg">
<path d="M0 12.9987V0.999799H3.93719V12.9987H0ZM9.29381 2.90949L11.5581 12.9987H7.24917L4.54549 0.999799H6.96217C7.51635 0.992607 8.05406 1.18796 8.4745 1.5491C8.89562 1.89509 9.18495 2.37541 9.29381 2.90949ZM12.1495 12.9987V0.999799H16.0867V12.9987H12.1495ZM19.0605 5.56281C18.6362 5.56694 18.2187 5.45594 17.8525 5.24167C17.4912 5.03283 17.1911 4.73267 16.9823 4.37131C16.7678 4.00504 16.6568 3.58747 16.661 3.16303C16.6561 2.74117 16.7672 2.32609 16.9823 1.96314C17.1933 1.6057 17.4931 1.3088 17.8525 1.10123C18.2189 0.887212 18.6362 0.776224 19.0605 0.780093C19.4822 0.775551 19.8971 0.886638 20.2602 1.10123C20.616 1.31062 20.9127 1.60727 21.122 1.96314C21.3368 2.32619 21.4479 2.7412 21.4433 3.16303C21.4473 3.58744 21.3363 4.00494 21.122 4.37131C20.9149 4.73108 20.6179 5.03099 20.2602 5.24167C19.8971 5.45668 19.4824 5.5678 19.0605 5.56281ZM22.0516 12.9987V0.999799H25.9892V12.9987H22.0516ZM30.9737 7.55694C30.9848 7.56858 31.0693 7.70659 31.2272 7.97098C31.3851 8.23537 31.5906 8.57339 31.8439 8.985C32.0974 9.39641 32.3649 9.83297 32.6463 10.2947C32.9278 10.7564 33.1926 11.1931 33.4408 11.6045C33.6881 12.0159 33.9697 12.4806 34.2857 12.9987H29.9598C29.6893 12.5593 29.4441 12.1622 29.2245 11.8073C29.0048 11.4524 28.7713 11.0693 28.5238 10.6581C28.2758 10.2472 28.0306 9.84724 27.7882 9.45817C27.5458 9.0691 27.3375 8.72832 27.1633 8.43577C26.9883 8.14302 26.8671 7.94583 26.7997 7.84424C26.6325 7.59215 26.5336 7.301 26.5127 6.99925C26.5294 6.70964 26.6226 6.42969 26.7828 6.18782C26.8503 6.07515 26.9743 5.87514 27.1545 5.58784C27.3348 5.30054 27.546 4.95976 27.7882 4.56543C28.0304 4.1711 28.2756 3.76831 28.5238 3.35708C28.772 2.94585 29.0055 2.55994 29.2245 2.19941C29.4445 1.83926 29.6897 1.43929 29.9598 0.999524H34.2857L30.9396 6.45821C30.8361 6.62027 30.7777 6.80705 30.7706 6.99925C30.7818 7.20103 30.8528 7.39503 30.9737 7.55694Z" fill="white"/>
</svg>

<svg xmlns="http://www.w3.org/2000/svg" viewBox="0 0 35 14"><path fill="#fff" d="M0 12.999v-12h3.937v12H0Zm9.294-10.09L11.558 13H7.25l-2.704-12h2.417a2.276 2.276 0 0 1 1.513.55c.42.346.71.826.819 1.36ZM12.149 13v-12h3.938v12h-3.938Zm6.912-7.436a2.382 2.382 0 0 1-2.4-2.4 2.301 2.301 0 0 1 .321-1.2 2.41 2.41 0 0 1 3.278-.862c.356.21.653.506.862.862.215.363.326.778.321 1.2a2.35 2.35 0 0 1-.321 1.208 2.4 2.4 0 0 1-.862.87 2.3 2.3 0 0 1-1.2.322Zm2.99 7.436v-12h3.938v12h-3.937Zm8.923-5.442c.01.012.095.15.253.414s.364.602.617 1.014a314.615 314.615 0 0 1 1.597 2.62c.247.41.529.876.845 1.394H29.96c-.27-.44-.516-.837-.736-1.192-.22-.355-.453-.738-.7-1.149-.248-.41-.493-.81-.736-1.2-.242-.389-.45-.73-.625-1.022-.175-.293-.296-.49-.363-.592A1.747 1.747 0 0 1 26.513 7c.016-.29.11-.57.27-.811.067-.113.191-.313.371-.6s.392-.628.634-1.023c.242-.394.488-.797.736-1.208l.7-1.158.736-1.2h4.326L30.94 6.46a1.08 1.08 0 0 0-.17.54c.012.202.083.396.204.558Z"/></svg>
